X:3465
T:Lads-a-Bunchum
O:england
M:2/2
C:
S:Bacon (MDT)
N:transposed from F to G
A:Adderbury
R:Reel
%P:Ch(AB)$^6$
P:A.(AB)6
%:
%:
K:G
I:speed 400
L:1/8
P:A
|:\
B3    c    Bcde           | c2     A2    A2 \
w:           Oh    dear mo-ther, what a  fool   I     be;
w:           Three are  blind_ and the   others can't see.
Bc      | d2  d2     dcBA           | G2     G2    G4 :|
w: Here are  six young  fel-lows come a- court- ing   me.
w:         Oh  dear   mo-ther, what a  fool   I     be
P:B
gf | e2 d2 d2 GA | B2 B2 B2 gf | e2 d2 c2 B2 | A2 G2 G2 \
gf | e2 d2 d2 GA | B2 B2 B2 gf | e2 d2 c2 B2 | A2 G2 G4 ||


